X: 99
T: The World Turned Upside Down
P: piffero primo b0080
O: safd 027
%R: march
F: http://ancients.sudburymuster.org/mus/acn/pdf/fyf09F.pdf
F: http://ancients.sudburymuster.org/mus/sng/pdf/theworldC0.pdf
Z: 2020 John Chambers <jc:trillian.mit.edu>
M: 2/4
L: 1/16
K: D
z2 |\
A2A2 d2d2 | efga f2ef | g2B2 c2d2 | e3d A2z2 |\
A2A2 d2d2 | efga f2ef | g2B2 c2d2 | e3d d2 :|
|: z2 |\
e2cd e3f | edcd e3f | edcd e3f | B3A A2A2 |\
a2ag f2ed | efga f2ef | g2B2 c2d2 | e3d d2 :|


